X:1
T:Title
%%score { ( 1 3 4 ) | ( 2 5 ) }
L:1/8
M:4/4
K:G
V:1 treble nm="Grand Piano"
V:3 treble 
V:4 treble 
V:2 bass 
V:5 bass 
V:1
 z4 z2[Q:1/4=94] DD | GGGG GGFG |[M:3/4] [FA]>[FA] [FA][FA] [FA]2 |[M:1/4] [DF][EG] | %4
[M:4/4] [FA][FA][FA][FA] [FA][FA][Ac][Ac] |[M:3/4] [Ac]>B BB B2 |[M:1/4] Bc |[M:4/4] dddB AGAB | %8
[M:3/4] [Ec][Ec] [CE][EG] [DB]2 |[M:1/4] DD |[M:4/4] E[DF][DG]A BB[=Fd][Ec] | %11
[M:7/8] BBA A [B,DG]3 |[M:1/4] [B,DG][B,=FG] |[M:4/4] E>E EE E[EG][Ge][Ge] |[M:3/4] z d- d4 | %15
[M:1/4] BB |[M:4/4] d6 z2 | B6 z2 | E>E EE E[EG][Ge][Ge] | z d3- d2 z2 | B3 B A2 A2 | %21
[M:3/4] [B,DG]6 |] %22
V:2
 z4 z2 [G,B,][G,B,] | [G,B,D][G,B,D][G,B,D][G,B,D] [G,B,D][G,B,D][A,CD][G,B,D] | %2
[M:3/4] [D,D]>[D,D] [D,D][D,D] [D,D]2 |[M:1/4] [D,A,][D,A,] | %4
[M:4/4] [D,D][D,D][D,D][D,D] [D,D][D,D][D,D][D,D] | %5
[M:3/4][K:treble] [G,D]>[G,DG] [G,DG][G,DG] [G,DG]2 |[M:1/4] [G,DG][G,A,G] | %7
[M:4/4] [G,B,G][G,B,G][G,B,G][G,DG] [G,CD][G,B,D][G,B,=F][G,F] | %8
[M:3/4][K:bass] [C,G,][C,G,] [C,G,][C,G,] [G,,G,]2 |[M:1/4] [B,,G,][B,,G,] | %10
[M:4/4] [C,G,C][A,,A,][B,,G,][D,F,D] [G,D][G,D][B,,G,][C,G,] | %11
[M:7/8] [D,G,D][D,G,D][D,CD] [D,CD] G,,3 |[M:1/4] G,G, | %13
[M:4/4] [C,C]>[C,C] [C,C][C,C] [C,C][C,C][C,C][C,C] | %14
[M:3/4][K:treble] [G,CG][G,B,G] [G,B,][G,B,] [G,B,][G,B,] |[M:1/4] [G,DG][K:bass][G,D] | %16
[M:4/4] [D,A,][D,A,][D,A,][D,A,] A,D[D,D][D,D] | [G,DG][G,D][G,D][G,D] [G,D]2 [G,B,D][G,B,=F] | %18
 [C,C]>[C,C] [C,C][C,C] [C,C][C,C][C,C][C,C] | %19
 [G,CG][G,B,G][G,B,][G,B,] [G,B,][K:bass][G,B,][B,,G,][C,G,] | [D,G,D]3 [D,G,D] [D,CD]2 [D,CD]2 | %21
[M:3/4] G,,6 |] %22
V:3
 x8 | x8 |[M:3/4] x6 |[M:1/4] x2 |[M:4/4] x8 |[M:3/4] x6 |[M:1/4] x2 |[M:4/4] x8 |[M:3/4] x6 | %9
[M:1/4] x2 |[M:4/4] x8 |[M:7/8] x7 |[M:1/4] x2 |[M:4/4] G6 z2 |[M:3/4] .e2 GG GG |[M:1/4] x2 | %16
[M:4/4] FFFF z A[=F^G][^FA] | z GGG G2 GG | G6 z2 | .e2 GG GG[Dd][Ec] | x8 |[M:3/4] x6 |] %22
V:4
 x8 | x8 |[M:3/4] x6 |[M:1/4] x2 |[M:4/4] x8 |[M:3/4] x6 |[M:1/4] x2 |[M:4/4] x8 |[M:3/4] x6 | %9
[M:1/4] x2 |[M:4/4] x8 |[M:7/8] x7 |[M:1/4] x2 |[M:4/4] x8 |[M:3/4] x6 |[M:1/4] x2 | %16
[M:4/4] z4 F2 z2 | x8 | x8 | x8 | x8 |[M:3/4] x6 |] %22
V:5
 x8 | x8 |[M:3/4] x6 |[M:1/4] x2 |[M:4/4] x8 |[M:3/4][K:treble] x6 |[M:1/4] x2 |[M:4/4] x8 | %8
[M:3/4][K:bass] x6 |[M:1/4] x2 |[M:4/4] x8 |[M:7/8] x7 |[M:1/4] x2 |[M:4/4] x8 | %14
[M:3/4][K:treble] x6 |[M:1/4] x[K:bass] x |[M:4/4] z4 D,2 z2 | x8 | x8 | x5[K:bass] x3 | x8 | %21
[M:3/4] x6 |] %22

